Catalina-dark/actions/22/im-skype.svg

<svg xmlns="http://www.w3.org/2000/svg" viewBox="0 0 22 22">
  <defs id="defs3051">
    <style type="text/css" id="current-color-scheme">
      .ColorScheme-Text {
        color:#f2f2f2
      }
      </style>
  </defs>
 <path 
     style="fill:currentColor;fill-opacity:1;stroke:none"      
	 class="ColorScheme-Text"
        d="M 7.4257812 3 C 4.9817913 3 3 4.9535113 3 7.3632812 C 3 8.1688112 3.223145 8.9226425 3.609375 9.5703125 C 3.507955 10.058963 3.453125 10.565624 3.453125 11.083984 C 3.453125 15.239964 6.8691744 18.609375 11.083984 18.609375 C 11.561814 18.609375 12.029202 18.565382 12.482422 18.482422 C 13.105252 18.812902 13.817529 19 14.574219 19 C 17.018579 19 19 17.046829 19 14.636719 C 19 13.940609 18.833343 13.283229 18.539062 12.699219 C 18.654292 12.178889 18.716797 11.638284 18.716797 11.083984 C 18.716797 6.9280644 15.300777 3.5585938 11.085938 3.5585938 C 10.641077 3.5585938 10.203597 3.5987019 9.7792969 3.6699219 C 9.0970569 3.2464619 8.2914113 3 7.4257812 3 z M 11.035156 5.7890625 C 11.716906 5.7890625 12.316016 5.8678944 12.816406 6.0214844 C 13.319126 6.1758844 13.743032 6.383985 14.076172 6.640625 C 14.411772 6.899295 14.661519 7.1757606 14.818359 7.4628906 C 14.976839 7.7535206 15.056641 8.0406825 15.056641 8.3203125 C 15.056641 8.5890825 14.952151 8.834365 14.744141 9.046875 C 14.534811 9.261275 14.269974 9.3710938 13.958984 9.3710938 C 13.676494 9.3710938 13.456054 9.3020687 13.302734 9.1679688 C 13.159674 9.0436987 13.012086 8.8491725 12.847656 8.5703125 C 12.657246 8.2135625 12.426359 7.932455 12.162109 7.734375 C 11.905719 7.541835 11.477772 7.4453125 10.888672 7.4453125 C 10.341552 7.4453125 9.8968562 7.552315 9.5664062 7.765625 C 9.2479063 7.971495 9.0917969 8.2090013 9.0917969 8.4882812 C 9.0917969 8.6597612 9.1413806 8.8023713 9.2441406 8.9257812 C 9.3526006 9.0561912 9.5059288 9.170255 9.6992188 9.265625 C 9.8996188 9.365325 10.107663 9.44375 10.314453 9.5 C 10.526753 9.5581 10.881471 9.6443994 11.369141 9.7558594 C 11.986801 9.8865294 12.554661 10.033206 13.056641 10.191406 C 13.564521 10.351936 14.005481 10.549537 14.363281 10.779297 C 14.728931 11.013957 15.017466 11.315681 15.222656 11.675781 C 15.428746 12.036671 15.533203 12.48202 15.533203 13 C 15.533093 13.61966 15.352557 14.185547 14.998047 14.679688 C 14.645427 15.172738 14.125069 15.562854 13.449219 15.839844 C 12.780059 16.114134 11.977633 16.253906 11.064453 16.253906 C 9.9682331 16.253906 9.0490513 16.06247 8.3320312 15.6875 C 7.8193713 15.41409 7.3951388 15.046484 7.0742188 14.589844 C 6.7501688 14.128554 6.5859375 13.669926 6.5859375 13.228516 C 6.5859375 12.952716 6.6931569 12.714921 6.9042969 12.519531 C 7.1133469 12.325411 7.3818519 12.226562 7.7011719 12.226562 C 7.9635019 12.226562 8.1891969 12.303931 8.3730469 12.457031 C 8.5485769 12.603971 8.6994725 12.821102 8.8203125 13.101562 C 8.9558025 13.407033 9.1040856 13.664117 9.2597656 13.867188 C 9.4095956 14.062658 9.6234975 14.227019 9.8984375 14.355469 C 10.175378 14.484809 10.549013 14.550781 11.007812 14.550781 C 11.638902 14.550781 12.155912 14.41834 12.544922 14.15625 C 12.924822 13.90079 13.109375 13.593007 13.109375 13.216797 C 13.109375 12.919587 13.012663 12.687026 12.814453 12.503906 C 12.606473 12.312436 12.33319 12.162837 12 12.060547 C 11.65337 11.954407 11.183542 11.83891 10.601562 11.71875 C 9.8096325 11.55155 9.1367825 11.353576 8.6015625 11.128906 C 8.0544425 10.899576 7.6115725 10.580071 7.2890625 10.181641 C 6.9614325 9.7777906 6.796875 9.2702881 6.796875 8.6738281 C 6.796875 8.1053981 6.9704331 7.5942038 7.3144531 7.1523438 C 7.6555431 6.7132837 8.1531519 6.3707187 8.7949219 6.1367188 C 9.4283719 5.9057787 10.182986 5.7890625 11.035156 5.7890625 z "
     />
</svg>

<svg viewBox="0 0 22 22" xmlns="http://www.w3.org/2000/svg">
<defs>
<style id="current-color-scheme" type="text/css">.ColorScheme-Text {
        color:#dedede
      }</style>
</defs>
<path class="ColorScheme-Text" d="m7.4258 3c-2.444 0-4.4258 1.9535-4.4258 4.3633 0 0.80553 0.22314 1.5594 0.60938 2.207-0.10142 0.48865-0.15625 0.99531-0.15625 1.5137 0 4.156 3.416 7.5254 7.6309 7.5254 0.47783 0 0.94522-0.043993 1.3984-0.12695 0.62283 0.33048 1.3351 0.51758 2.0918 0.51758 2.4444 0 4.4258-1.9532 4.4258-4.3633 0-0.69611-0.16666-1.3535-0.46094-1.9375 0.11523-0.52033 0.17774-1.0609 0.17774-1.6152 0-4.1559-3.416-7.5254-7.6309-7.5254-0.44486 0-0.88234 0.040108-1.3066 0.11133-0.68224-0.42346-1.4879-0.66992-2.3535-0.66992zm3.6094 2.7891c0.68175 0 1.2809 0.078832 1.7812 0.23242 0.50272 0.1544 0.92663 0.3625 1.2598 0.61914 0.3356 0.25867 0.58535 0.53514 0.74219 0.82227 0.15848 0.29063 0.23828 0.57779 0.23828 0.85742 0 0.26877-0.10449 0.51405-0.3125 0.72656-0.20933 0.2144-0.47417 0.32422-0.78516 0.32422-0.28249 0-0.50293-0.069025-0.65625-0.20312-0.14306-0.12427-0.29065-0.3188-0.45508-0.59766-0.19041-0.35675-0.4213-0.63786-0.68555-0.83594-0.25639-0.19254-0.68434-0.28906-1.2734-0.28906-0.54712 0-0.99182 0.107-1.3223 0.32031-0.3185 0.20587-0.47461 0.44338-0.47461 0.72266 0 0.17148 0.049584 0.31409 0.15234 0.4375 0.10846 0.13041 0.26179 0.24447 0.45508 0.33984 0.2004 0.0997 0.40844 0.17812 0.61523 0.23438 0.2123 0.0581 0.56702 0.1444 1.0547 0.25586 0.61766 0.13067 1.1855 0.27735 1.6875 0.43555 0.50788 0.16053 0.94884 0.35813 1.3066 0.58789 0.36565 0.23466 0.65418 0.53638 0.85938 0.89648 0.20609 0.36089 0.31055 0.80624 0.31055 1.3242-1.1e-4 0.61966-0.18065 1.1855-0.53516 1.6797-0.35262 0.49305-0.87298 0.88317-1.5488 1.1602-0.66916 0.27429-1.4716 0.41406-2.3848 0.41406-1.0962 0-2.0154-0.19144-2.7324-0.56641-0.51266-0.27341-0.93689-0.64102-1.2578-1.0977-0.32405-0.46129-0.48828-0.91992-0.48828-1.3613 0-0.2758 0.10722-0.5136 0.31836-0.70898 0.20905-0.19412 0.47756-0.29297 0.79688-0.29297 0.26233 0 0.48802 0.077369 0.67188 0.23047 0.17553 0.14694 0.32643 0.36407 0.44727 0.64453 0.13549 0.30547 0.28377 0.56256 0.43945 0.76563 0.14983 0.19547 0.36373 0.35983 0.63867 0.48828 0.27694 0.12934 0.65058 0.19531 1.1094 0.19531 0.63109 0 1.1481-0.13244 1.5371-0.39453 0.3799-0.25546 0.56445-0.56324 0.56445-0.93945 0-0.29721-0.096712-0.52977-0.29492-0.71289-0.20798-0.19147-0.48126-0.34107-0.81445-0.44336-0.34663-0.10614-0.81646-0.22164-1.3984-0.3418-0.79193-0.1672-1.4648-0.36517-2-0.58984-0.54712-0.22933-0.98999-0.54884-1.3125-0.94726-0.32763-0.40385-0.49219-0.91135-0.49219-1.5078 0-0.56843 0.17356-1.0796 0.51758-1.5215 0.34109-0.43906 0.8387-0.78163 1.4805-1.0156 0.63345-0.23094 1.3881-0.34766 2.2402-0.34766z" fill="currentColor"/>
</svg>
